X: 612
T: Dün Gece Fasl-ı...
C: Ahmet Avni Konuk
O: Turkey
F: http://compmusic.upf.edu/node/140
N: hicazkar--kupe--devrirevanihindi--dun_gece--ahmet_avni_konuk
N: makam= hicazkar
N: form= kupe
N: usul= devrirevanihindi = 14/8
M: 14/8
L: 1/16
K: C _1/4B _7/8e _7/8A ^f
Q: 1/4=102
%%MIDI tuningsystem comma53
g4 =a2g8a4c'2 c'_bba aggf  | g4 _b2=a2 g2f2 e2fg feed d6z2  | 
w:  Dün  gi ce fasl_  |  ı  Hi caz *  *  *  kâ  | 
dcB2 c2d8e4f2 =agfe d2z2  | g4 =a_bg4c'2 baa2 g2f2 g6z2  | 
w:  rı  *  *  te gan nî   |  ey *  *  *  le *  *  dik    | 
d4 g2g8=f2 g2a2 aggf f_eed  | d2e2 g=ffe edc2 ded4c2 d2ed c2z2  | 
w:  Duy ma dık  tek  |  ra *  rı *  nı  *  *  *  *  *  *  dil  | 
c4 d_edc BAG2 z2G2 A2B2 cBAB c2z2  | \
w:  den  te *  men *  *  *  *  nî   | 
d2e2 fgfe dcB3AA3GFA G6z2  | 
w:  ey *  *  *  *  *  *  *  le *  dik    | 
|


